images/50097943.svg

<?xml version="1.0" encoding="UTF-8"?>
<svg xmlns="http://www.w3.org/2000/svg" xmlns:xlink="http://www.w3.org/1999/xlink" width="300pt" height="300pt" viewBox="0 0 300 300" version="1.1">
<defs>
<g>
<symbol overflow="visible" id="glyph0-0">
<path style="stroke:none;" d="M 0.453125 1.59375 L 0.453125 -6.34375 L 4.953125 -6.34375 L 4.953125 1.59375 Z M 0.953125 1.09375 L 4.453125 1.09375 L 4.453125 -5.84375 L 0.953125 -5.84375 Z M 0.953125 1.09375 "/>
</symbol>
<symbol overflow="visible" id="glyph0-1">
<path style="stroke:none;" d="M 5.796875 -6.0625 L 5.796875 -5.125 C 5.492188 -5.394531 5.171875 -5.597656 4.828125 -5.734375 C 4.492188 -5.878906 4.140625 -5.953125 3.765625 -5.953125 C 3.015625 -5.953125 2.4375 -5.722656 2.03125 -5.265625 C 1.632812 -4.804688 1.4375 -4.144531 1.4375 -3.28125 C 1.4375 -2.414062 1.632812 -1.753906 2.03125 -1.296875 C 2.4375 -0.835938 3.015625 -0.609375 3.765625 -0.609375 C 4.140625 -0.609375 4.492188 -0.675781 4.828125 -0.8125 C 5.171875 -0.945312 5.492188 -1.15625 5.796875 -1.4375 L 5.796875 -0.5 C 5.484375 -0.289062 5.15625 -0.132812 4.8125 -0.03125 C 4.46875 0.0703125 4.097656 0.125 3.703125 0.125 C 2.710938 0.125 1.929688 -0.175781 1.359375 -0.78125 C 0.785156 -1.394531 0.5 -2.226562 0.5 -3.28125 C 0.5 -4.332031 0.785156 -5.160156 1.359375 -5.765625 C 1.929688 -6.378906 2.710938 -6.6875 3.703125 -6.6875 C 4.097656 -6.6875 4.46875 -6.632812 4.8125 -6.53125 C 5.164062 -6.425781 5.492188 -6.269531 5.796875 -6.0625 Z M 5.796875 -6.0625 "/>
</symbol>
<symbol overflow="visible" id="glyph0-2">
<path style="stroke:none;" d="M 0.84375 -6.84375 L 1.65625 -6.84375 L 1.65625 0 L 0.84375 0 Z M 0.84375 -6.84375 "/>
</symbol>
<symbol overflow="visible" id="glyph0-3">
<path style="stroke:none;" d="M 0.890625 -6.5625 L 2.078125 -6.5625 L 4.984375 -1.078125 L 4.984375 -6.5625 L 5.84375 -6.5625 L 5.84375 0 L 4.65625 0 L 1.75 -5.484375 L 1.75 0 L 0.890625 0 Z M 0.890625 -6.5625 "/>
</symbol>
<symbol overflow="visible" id="glyph0-4">
<path style="stroke:none;" d="M 0.890625 -6.5625 L 1.765625 -6.5625 L 1.765625 -3.875 L 5 -3.875 L 5 -6.5625 L 5.890625 -6.5625 L 5.890625 0 L 5 0 L 5 -3.125 L 1.765625 -3.125 L 1.765625 0 L 0.890625 0 Z M 0.890625 -6.5625 "/>
</symbol>
</g>
</defs>
<g id="surface15085">
<rect x="0" y="0" width="300" height="300" style="fill:rgb(100%,100%,100%);fill-opacity:1;stroke:none;"/>
<path style="fill:none;stroke-width:1.2;stroke-linecap:butt;stroke-linejoin:miter;stroke:rgb(0%,80%,0%);stroke-opacity:1;stroke-miterlimit:10;" d="M 264.75 133.113281 L 254.867188 135.101562 "/>
<path style="fill:none;stroke-width:1.2;stroke-linecap:butt;stroke-linejoin:miter;stroke:rgb(0%,0%,0%);stroke-opacity:1;stroke-miterlimit:10;" d="M 254.867188 135.101562 L 244.984375 137.089844 "/>
<path style=" stroke:none;fill-rule:nonzero;fill:rgb(100%,100%,100%);fill-opacity:1;" d="M 259.75 127.613281 L 269.75 127.613281 L 269.75 138.613281 L 259.75 138.613281 Z M 259.75 127.613281 "/>
<g style="fill:rgb(0%,80%,0%);fill-opacity:1;">
  <use xlink:href="#glyph0-1" x="259.75" y="136.276367"/>
  <use xlink:href="#glyph0-2" x="266.263672" y="136.276367"/>
</g>
<path style="fill:none;stroke-width:1.2;stroke-linecap:butt;stroke-linejoin:miter;stroke:rgb(0%,0%,0%);stroke-opacity:1;stroke-miterlimit:10;" d="M 244.984375 137.089844 L 238.542969 156.195312 "/>
<path style="fill:none;stroke-width:1.2;stroke-linecap:butt;stroke-linejoin:miter;stroke:rgb(0%,0%,0%);stroke-opacity:1;stroke-miterlimit:10;" d="M 239.84375 137.484375 L 234.691406 152.769531 "/>
<path style="fill:none;stroke-width:1.2;stroke-linecap:butt;stroke-linejoin:miter;stroke:rgb(0%,0%,0%);stroke-opacity:1;stroke-miterlimit:10;" d="M 231.65625 121.957031 L 244.984375 137.089844 "/>
<path style="fill:none;stroke-width:1.2;stroke-linecap:butt;stroke-linejoin:miter;stroke:rgb(0%,0%,0%);stroke-opacity:1;stroke-miterlimit:10;" d="M 238.542969 156.195312 L 218.777344 160.171875 "/>
<path style="fill:none;stroke-width:1.2;stroke-linecap:butt;stroke-linejoin:miter;stroke:rgb(0%,0%,0%);stroke-opacity:1;stroke-miterlimit:10;" d="M 218.777344 160.171875 L 205.449219 145.039062 "/>
<path style="fill:none;stroke-width:1.2;stroke-linecap:butt;stroke-linejoin:miter;stroke:rgb(0%,0%,0%);stroke-opacity:1;stroke-miterlimit:10;" d="M 221.003906 155.523438 L 210.34375 143.417969 "/>
<path style="fill:none;stroke-width:1.2;stroke-linecap:butt;stroke-linejoin:miter;stroke:rgb(0%,0%,0%);stroke-opacity:1;stroke-miterlimit:10;" d="M 205.449219 145.039062 L 195.566406 147.027344 "/>
<path style="fill:none;stroke-width:1.2;stroke-linecap:butt;stroke-linejoin:miter;stroke:rgb(0%,0%,100%);stroke-opacity:1;stroke-miterlimit:10;" d="M 195.566406 147.027344 L 185.683594 149.015625 "/>
<path style="fill:none;stroke-width:1.2;stroke-linecap:butt;stroke-linejoin:miter;stroke:rgb(0%,0%,0%);stroke-opacity:1;stroke-miterlimit:10;" d="M 205.449219 145.039062 L 211.890625 125.933594 "/>
<path style="fill:none;stroke-width:1.2;stroke-linecap:butt;stroke-linejoin:miter;stroke:rgb(0%,0%,100%);stroke-opacity:1;stroke-miterlimit:10;" d="M 185.683594 149.015625 L 179.019531 141.453125 "/>
<path style="fill:none;stroke-width:1.2;stroke-linecap:butt;stroke-linejoin:miter;stroke:rgb(0%,0%,0%);stroke-opacity:1;stroke-miterlimit:10;" d="M 179.019531 141.453125 L 172.355469 133.886719 "/>
<path style=" stroke:none;fill-rule:nonzero;fill:rgb(100%,100%,100%);fill-opacity:1;" d="M 178.683594 143.515625 L 192.683594 143.515625 L 192.683594 154.515625 L 178.683594 154.515625 Z M 178.683594 143.515625 "/>
<g style="fill:rgb(0%,0%,100%);fill-opacity:1;">
  <use xlink:href="#glyph0-3" x="178.683594" y="152.178711"/>
  <use xlink:href="#glyph0-4" x="185.661133" y="152.178711"/>
</g>
<path style="fill:none;stroke-width:1.2;stroke-linecap:butt;stroke-linejoin:miter;stroke:rgb(0%,0%,0%);stroke-opacity:1;stroke-miterlimit:10;" d="M 172.355469 133.886719 L 152.589844 137.863281 "/>
<path style="fill:none;stroke-width:1.2;stroke-linecap:butt;stroke-linejoin:miter;stroke:rgb(0%,0%,0%);stroke-opacity:1;stroke-miterlimit:10;" d="M 152.589844 137.863281 L 148.386719 147.027344 "/>
<path style="fill:none;stroke-width:1.2;stroke-linecap:butt;stroke-linejoin:miter;stroke:rgb(0%,0%,100%);stroke-opacity:1;stroke-miterlimit:10;" d="M 148.386719 147.027344 L 144.1875 156.191406 "/>
<path style="fill:none;stroke-width:1.2;stroke-linecap:butt;stroke-linejoin:miter;stroke:rgb(0%,0%,100%);stroke-opacity:1;stroke-miterlimit:10;" d="M 137.753906 124.207031 L 145.171875 131.035156 "/>
<path style="fill:none;stroke-width:1.2;stroke-linecap:butt;stroke-linejoin:miter;stroke:rgb(0%,0%,0%);stroke-opacity:1;stroke-miterlimit:10;" d="M 145.171875 131.035156 L 152.589844 137.863281 "/>
<path style="fill:none;stroke-width:1.2;stroke-linecap:butt;stroke-linejoin:miter;stroke:rgb(0%,0%,100%);stroke-opacity:1;stroke-miterlimit:10;" d="M 136.023438 129.066406 L 141.957031 134.527344 "/>
<path style="fill:none;stroke-width:1.2;stroke-linecap:butt;stroke-linejoin:miter;stroke:rgb(0%,0%,0%);stroke-opacity:1;stroke-miterlimit:10;" d="M 141.957031 134.527344 L 147.894531 139.988281 "/>
<path style="fill:none;stroke-width:1.2;stroke-linecap:butt;stroke-linejoin:miter;stroke:rgb(0%,0%,100%);stroke-opacity:1;stroke-miterlimit:10;" d="M 144.1875 156.191406 L 134.171875 155.027344 "/>
<path style="fill:none;stroke-width:1.2;stroke-linecap:butt;stroke-linejoin:miter;stroke:rgb(0%,0%,0%);stroke-opacity:1;stroke-miterlimit:10;" d="M 134.171875 155.027344 L 124.160156 153.867188 "/>
<path style=" stroke:none;fill-rule:nonzero;fill:rgb(100%,100%,100%);fill-opacity:1;" d="M 137.1875 150.691406 L 151.1875 150.691406 L 151.1875 161.691406 L 137.1875 161.691406 Z M 137.1875 150.691406 "/>
<g style="fill:rgb(0%,0%,100%);fill-opacity:1;">
  <use xlink:href="#glyph0-3" x="137.1875" y="159.354492"/>
  <use xlink:href="#glyph0-4" x="144.165039" y="159.354492"/>
</g>
<path style="fill:none;stroke-width:1.2;stroke-linecap:butt;stroke-linejoin:miter;stroke:rgb(0%,0%,0%);stroke-opacity:1;stroke-miterlimit:10;" d="M 124.160156 153.867188 L 120.183594 134.097656 "/>
<path style="fill:none;stroke-width:1.2;stroke-linecap:butt;stroke-linejoin:miter;stroke:rgb(0%,0%,0%);stroke-opacity:1;stroke-miterlimit:10;" d="M 128.414062 150.953125 L 125.230469 135.140625 "/>
<path style="fill:none;stroke-width:1.2;stroke-linecap:butt;stroke-linejoin:miter;stroke:rgb(0%,0%,0%);stroke-opacity:1;stroke-miterlimit:10;" d="M 124.160156 153.867188 L 110.503906 168.699219 "/>
<path style="fill:none;stroke-width:1.2;stroke-linecap:butt;stroke-linejoin:miter;stroke:rgb(0%,0%,0%);stroke-opacity:1;stroke-miterlimit:10;" d="M 120.183594 134.097656 L 128.96875 129.152344 "/>
<path style="fill:none;stroke-width:1.2;stroke-linecap:butt;stroke-linejoin:miter;stroke:rgb(0%,0%,100%);stroke-opacity:1;stroke-miterlimit:10;" d="M 128.96875 129.152344 L 137.753906 124.207031 "/>
<path style="fill:none;stroke-width:1.2;stroke-linecap:butt;stroke-linejoin:miter;stroke:rgb(0%,0%,0%);stroke-opacity:1;stroke-miterlimit:10;" d="M 120.183594 134.097656 L 101.855469 125.695312 "/>
<path style=" stroke:none;fill-rule:nonzero;fill:rgb(100%,100%,100%);fill-opacity:1;" d="M 134.753906 118.707031 L 141.753906 118.707031 L 141.753906 129.707031 L 134.753906 129.707031 Z M 134.753906 118.707031 "/>
<g style="fill:rgb(0%,0%,100%);fill-opacity:1;">
  <use xlink:href="#glyph0-3" x="134.753906" y="127.370117"/>
</g>
<path style="fill:none;stroke-width:1.2;stroke-linecap:butt;stroke-linejoin:miter;stroke:rgb(0%,0%,0%);stroke-opacity:1;stroke-miterlimit:10;" d="M 101.855469 125.695312 L 99.964844 105.621094 "/>
<path style="fill:none;stroke-width:1.2;stroke-linecap:butt;stroke-linejoin:miter;stroke:rgb(0%,0%,0%);stroke-opacity:1;stroke-miterlimit:10;" d="M 101.855469 125.695312 L 85.414062 137.371094 "/>
<path style="fill:none;stroke-width:1.2;stroke-linecap:butt;stroke-linejoin:miter;stroke:rgb(0%,0%,0%);stroke-opacity:1;stroke-miterlimit:10;" d="M 97.464844 122.996094 L 84.3125 132.332031 "/>
<path style="fill:none;stroke-width:1.2;stroke-linecap:butt;stroke-linejoin:miter;stroke:rgb(0%,0%,0%);stroke-opacity:1;stroke-miterlimit:10;" d="M 99.964844 105.621094 L 81.636719 97.222656 "/>
<path style="fill:none;stroke-width:1.2;stroke-linecap:butt;stroke-linejoin:miter;stroke:rgb(0%,0%,0%);stroke-opacity:1;stroke-miterlimit:10;" d="M 96.15625 109.09375 L 81.492188 102.375 "/>
<path style="fill:none;stroke-width:1.2;stroke-linecap:butt;stroke-linejoin:miter;stroke:rgb(0%,0%,0%);stroke-opacity:1;stroke-miterlimit:10;" d="M 81.636719 97.222656 L 65.195312 108.894531 "/>
<path style="fill:none;stroke-width:1.2;stroke-linecap:butt;stroke-linejoin:miter;stroke:rgb(0%,0%,0%);stroke-opacity:1;stroke-miterlimit:10;" d="M 65.195312 108.894531 L 66.140625 118.929688 "/>
<path style="fill:none;stroke-width:1.2;stroke-linecap:butt;stroke-linejoin:miter;stroke:rgb(0%,0%,100%);stroke-opacity:1;stroke-miterlimit:10;" d="M 66.140625 118.929688 L 67.085938 128.96875 "/>
<path style="fill:none;stroke-width:1.2;stroke-linecap:butt;stroke-linejoin:miter;stroke:rgb(0%,0%,100%);stroke-opacity:1;stroke-miterlimit:10;" d="M 45.523438 104.484375 L 55.359375 106.691406 "/>
<path style="fill:none;stroke-width:1.2;stroke-linecap:butt;stroke-linejoin:miter;stroke:rgb(0%,0%,0%);stroke-opacity:1;stroke-miterlimit:10;" d="M 55.359375 106.691406 L 65.195312 108.894531 "/>
<path style="fill:none;stroke-width:1.2;stroke-linecap:butt;stroke-linejoin:miter;stroke:rgb(0%,0%,100%);stroke-opacity:1;stroke-miterlimit:10;" d="M 46.453125 109.554688 L 54.320312 111.320312 "/>
<path style="fill:none;stroke-width:1.2;stroke-linecap:butt;stroke-linejoin:miter;stroke:rgb(0%,0%,0%);stroke-opacity:1;stroke-miterlimit:10;" d="M 54.320312 111.320312 L 62.191406 113.082031 "/>
<path style="fill:none;stroke-width:1.2;stroke-linecap:butt;stroke-linejoin:miter;stroke:rgb(0%,0%,100%);stroke-opacity:1;stroke-miterlimit:10;" d="M 67.085938 128.96875 L 48.578125 136.964844 "/>
<path style="fill:none;stroke-width:1.2;stroke-linecap:butt;stroke-linejoin:miter;stroke:rgb(0%,0%,100%);stroke-opacity:1;stroke-miterlimit:10;" d="M 67.085938 128.96875 L 76.25 133.167969 "/>
<path style="fill:none;stroke-width:1.2;stroke-linecap:butt;stroke-linejoin:miter;stroke:rgb(0%,0%,0%);stroke-opacity:1;stroke-miterlimit:10;" d="M 76.25 133.167969 L 85.414062 137.371094 "/>
<path style=" stroke:none;fill-rule:nonzero;fill:rgb(100%,100%,100%);fill-opacity:1;" d="M 64.085938 123.46875 L 71.085938 123.46875 L 71.085938 134.46875 L 64.085938 134.46875 Z M 64.085938 123.46875 "/>
<g style="fill:rgb(0%,0%,100%);fill-opacity:1;">
  <use xlink:href="#glyph0-3" x="64.085938" y="132.131836"/>
</g>
<path style="fill:none;stroke-width:1.2;stroke-linecap:butt;stroke-linejoin:miter;stroke:rgb(0%,0%,100%);stroke-opacity:1;stroke-miterlimit:10;" d="M 48.578125 136.964844 L 41.914062 129.402344 "/>
<path style="fill:none;stroke-width:1.2;stroke-linecap:butt;stroke-linejoin:miter;stroke:rgb(0%,0%,0%);stroke-opacity:1;stroke-miterlimit:10;" d="M 41.914062 129.402344 L 35.25 121.835938 "/>
<path style="fill:none;stroke-width:1.2;stroke-linecap:butt;stroke-linejoin:miter;stroke:rgb(0%,0%,100%);stroke-opacity:1;stroke-miterlimit:10;" d="M 50.804688 132.316406 L 45.472656 126.265625 "/>
<path style="fill:none;stroke-width:1.2;stroke-linecap:butt;stroke-linejoin:miter;stroke:rgb(0%,0%,0%);stroke-opacity:1;stroke-miterlimit:10;" d="M 45.472656 126.265625 L 40.144531 120.214844 "/>
<path style=" stroke:none;fill-rule:nonzero;fill:rgb(100%,100%,100%);fill-opacity:1;" d="M 45.578125 131.464844 L 52.578125 131.464844 L 52.578125 142.464844 L 45.578125 142.464844 Z M 45.578125 131.464844 "/>
<g style="fill:rgb(0%,0%,100%);fill-opacity:1;">
  <use xlink:href="#glyph0-3" x="45.578125" y="140.12793"/>
</g>
<path style="fill:none;stroke-width:1.2;stroke-linecap:butt;stroke-linejoin:miter;stroke:rgb(0%,0%,0%);stroke-opacity:1;stroke-miterlimit:10;" d="M 35.25 121.835938 L 40.386719 113.160156 "/>
<path style="fill:none;stroke-width:1.2;stroke-linecap:butt;stroke-linejoin:miter;stroke:rgb(0%,0%,100%);stroke-opacity:1;stroke-miterlimit:10;" d="M 40.386719 113.160156 L 45.523438 104.484375 "/>
<path style=" stroke:none;fill-rule:nonzero;fill:rgb(100%,100%,100%);fill-opacity:1;" d="M 42.523438 98.984375 L 49.523438 98.984375 L 49.523438 109.984375 L 42.523438 109.984375 Z M 42.523438 98.984375 "/>
<g style="fill:rgb(0%,0%,100%);fill-opacity:1;">
  <use xlink:href="#glyph0-3" x="42.523438" y="107.647461"/>
</g>
<path style="fill:none;stroke-width:1.2;stroke-linecap:butt;stroke-linejoin:miter;stroke:rgb(0%,0%,0%);stroke-opacity:1;stroke-miterlimit:10;" d="M 110.503906 168.699219 L 100.667969 166.496094 "/>
<path style="fill:none;stroke-width:1.2;stroke-linecap:butt;stroke-linejoin:miter;stroke:rgb(0%,0%,100%);stroke-opacity:1;stroke-miterlimit:10;" d="M 100.667969 166.496094 L 90.828125 164.292969 "/>
<path style="fill:none;stroke-width:1.2;stroke-linecap:butt;stroke-linejoin:miter;stroke:rgb(0%,0%,0%);stroke-opacity:1;stroke-miterlimit:10;" d="M 107.5 172.890625 L 99.628906 171.125 "/>
<path style="fill:none;stroke-width:1.2;stroke-linecap:butt;stroke-linejoin:miter;stroke:rgb(0%,0%,100%);stroke-opacity:1;stroke-miterlimit:10;" d="M 99.628906 171.125 L 91.761719 169.363281 "/>
<path style="fill:none;stroke-width:1.2;stroke-linecap:butt;stroke-linejoin:miter;stroke:rgb(0%,0%,0%);stroke-opacity:1;stroke-miterlimit:10;" d="M 116.527344 187.945312 L 110.503906 168.699219 "/>
<path style="fill:none;stroke-width:1.2;stroke-linecap:butt;stroke-linejoin:miter;stroke:rgb(0%,0%,100%);stroke-opacity:1;stroke-miterlimit:10;" d="M 90.828125 164.292969 L 84.003906 171.710938 "/>
<path style="fill:none;stroke-width:1.2;stroke-linecap:butt;stroke-linejoin:miter;stroke:rgb(0%,0%,0%);stroke-opacity:1;stroke-miterlimit:10;" d="M 84.003906 171.710938 L 77.175781 179.128906 "/>
<path style=" stroke:none;fill-rule:nonzero;fill:rgb(100%,100%,100%);fill-opacity:1;" d="M 87.828125 158.792969 L 94.828125 158.792969 L 94.828125 169.792969 L 87.828125 169.792969 Z M 87.828125 158.792969 "/>
<g style="fill:rgb(0%,0%,100%);fill-opacity:1;">
  <use xlink:href="#glyph0-3" x="87.828125" y="167.456055"/>
</g>
<path style="fill:none;stroke-width:1.2;stroke-linecap:butt;stroke-linejoin:miter;stroke:rgb(0%,0%,0%);stroke-opacity:1;stroke-miterlimit:10;" d="M 77.175781 179.128906 L 83.195312 198.371094 "/>
<path style="fill:none;stroke-width:1.2;stroke-linecap:butt;stroke-linejoin:miter;stroke:rgb(0%,0%,0%);stroke-opacity:1;stroke-miterlimit:10;" d="M 82.304688 179.636719 L 87.121094 195.03125 "/>
<path style="fill:none;stroke-width:1.2;stroke-linecap:butt;stroke-linejoin:miter;stroke:rgb(0%,0%,0%);stroke-opacity:1;stroke-miterlimit:10;" d="M 77.175781 179.128906 L 57.5 174.722656 "/>
<path style="fill:none;stroke-width:1.2;stroke-linecap:butt;stroke-linejoin:miter;stroke:rgb(0%,0%,0%);stroke-opacity:1;stroke-miterlimit:10;" d="M 83.195312 198.371094 L 102.871094 202.777344 "/>
<path style="fill:none;stroke-width:1.2;stroke-linecap:butt;stroke-linejoin:miter;stroke:rgb(0%,0%,0%);stroke-opacity:1;stroke-miterlimit:10;" d="M 102.871094 202.777344 L 116.527344 187.945312 "/>
<path style="fill:none;stroke-width:1.2;stroke-linecap:butt;stroke-linejoin:miter;stroke:rgb(0%,0%,0%);stroke-opacity:1;stroke-miterlimit:10;" d="M 100.746094 198.082031 L 111.667969 186.214844 "/>
<path style="fill:none;stroke-width:1.2;stroke-linecap:butt;stroke-linejoin:miter;stroke:rgb(0%,0%,0%);stroke-opacity:1;stroke-miterlimit:10;" d="M 211.890625 125.933594 L 231.65625 121.957031 "/>
<path style="fill:none;stroke-width:1.2;stroke-linecap:butt;stroke-linejoin:miter;stroke:rgb(0%,0%,0%);stroke-opacity:1;stroke-miterlimit:10;" d="M 214.800781 130.1875 L 230.613281 127.007812 "/>
</g>
</svg>

<svg xmlns="http://www.w3.org/2000/svg" xmlns:xlink="http://www.w3.org/1999/xlink" width="300pt" height="300pt" viewBox="0 0 300 300"><defs><symbol overflow="visible"><path d="M.453 1.594v-7.938h4.5v7.938zm.5-.5h3.5v-6.938h-3.5zm0 0"/></symbol><symbol overflow="visible" id="a"><path d="M5.797-6.063v.938c-.305-.27-.625-.473-.97-.61-.335-.144-.686-.218-1.06-.218-.75 0-1.33.23-1.736.687-.397.46-.592 1.12-.592 1.985 0 .866.195 1.526.593 1.983.408.46.986.688 1.736.688.375 0 .726-.066 1.062-.203.344-.132.664-.343.97-.625V-.5c-.314.21-.642.367-.986.47-.343.1-.714.155-1.11.155-.99 0-1.772-.3-2.343-.906C.784-1.396.5-2.228.5-3.28c0-1.052.285-1.88.86-2.486.57-.613 1.35-.92 2.343-.92.395-.002.766.053 1.11.155.35.104.68.26.984.468zm0 0"/></symbol><symbol overflow="visible" id="b"><path d="M.844-6.844h.812V0H.844zm0 0"/></symbol><symbol overflow="visible" id="c"><path d="M.89-6.563H2.08l2.906 5.485v-5.484h.86V0H4.656L1.75-5.484V0H.89zm0 0"/></symbol><symbol overflow="visible" id="d"><path d="M.89-6.563h.876v2.688H5v-2.688h.89V0H5v-3.125H1.766V0H.89zm0 0"/></symbol></defs><g><path fill="#fff" d="M0 0h300v300H0z"/><path d="M264.75 133.113l-9.883 1.99" stroke-width="1.2" stroke="#0c0" stroke-miterlimit="10" fill="none"/><path d="M254.867 135.102l-9.883 1.988" stroke-width="1.2" stroke="#000" stroke-miterlimit="10" fill="none"/><path d="M259.75 127.613h10v11h-10zm0 0" fill="#fff"/><g fill="#0c0"><use xlink:href="#a" x="259.75" y="136.276"/><use xlink:href="#b" x="266.264" y="136.276"/></g><path d="M244.984 137.09l-6.44 19.105M239.844 137.484l-5.153 15.286M231.656 121.957l13.328 15.133M238.543 156.195l-19.766 3.977M218.777 160.172L205.45 145.04M221.004 155.523l-10.66-12.105M205.45 145.04l-9.884 1.987" stroke-width="1.2" stroke="#000" stroke-miterlimit="10" fill="none"/><path d="M195.566 147.027l-9.882 1.99" stroke-width="1.2" stroke="#00f" stroke-miterlimit="10" fill="none"/><path d="M205.45 145.04l6.44-19.106" stroke-width="1.2" stroke="#000" stroke-miterlimit="10" fill="none"/><path d="M185.684 149.016l-6.664-7.563" stroke-width="1.2" stroke="#00f" stroke-miterlimit="10" fill="none"/><path d="M179.02 141.453l-6.665-7.566" stroke-width="1.2" stroke="#000" stroke-miterlimit="10" fill="none"/><path d="M178.684 143.516h14v11h-14zm0 0" fill="#fff"/><g fill="#00f"><use xlink:href="#c" x="178.684" y="152.179"/><use xlink:href="#d" x="185.661" y="152.179"/></g><path d="M172.355 133.887l-19.765 3.976M152.59 137.863l-4.203 9.164" stroke-width="1.2" stroke="#000" stroke-miterlimit="10" fill="none"/><path d="M148.387 147.027l-4.2 9.164M137.754 124.207l7.418 6.828" stroke-width="1.2" stroke="#00f" stroke-miterlimit="10" fill="none"/><path d="M145.172 131.035l7.418 6.828" stroke-width="1.2" stroke="#000" stroke-miterlimit="10" fill="none"/><path d="M136.023 129.066l5.934 5.46" stroke-width="1.2" stroke="#00f" stroke-miterlimit="10" fill="none"/><path d="M141.957 134.527l5.938 5.46" stroke-width="1.2" stroke="#000" stroke-miterlimit="10" fill="none"/><path d="M144.188 156.19l-10.016-1.163" stroke-width="1.2" stroke="#00f" stroke-miterlimit="10" fill="none"/><path d="M134.172 155.027l-10.012-1.16" stroke-width="1.2" stroke="#000" stroke-miterlimit="10" fill="none"/><path d="M137.188 150.69h14v11h-14zm0 0" fill="#fff"/><g fill="#00f"><use xlink:href="#c" x="137.188" y="159.354"/><use xlink:href="#d" x="144.165" y="159.354"/></g><path d="M124.16 153.867l-3.976-19.77M128.414 150.953l-3.184-15.812M124.16 153.867L110.504 168.7M120.184 134.098l8.785-4.946" stroke-width="1.2" stroke="#000" stroke-miterlimit="10" fill="none"/><path d="M128.97 129.152l8.784-4.945" stroke-width="1.2" stroke="#00f" stroke-miterlimit="10" fill="none"/><path d="M120.184 134.098l-18.33-8.403" stroke-width="1.2" stroke="#000" stroke-miterlimit="10" fill="none"/><path d="M134.754 118.707h7v11h-7zm0 0" fill="#fff"/><use xlink:href="#c" x="134.754" y="127.37" fill="#00f"/><path d="M101.855 125.695l-1.89-20.074M101.855 125.695l-16.44 11.676M97.465 122.996l-13.153 9.336M99.965 105.62l-18.328-8.397M96.156 109.094l-14.664-6.72M81.637 97.223l-16.442 11.672M65.195 108.895l.946 10.035" stroke-width="1.2" stroke="#000" stroke-miterlimit="10" fill="none"/><path d="M66.14 118.93l.946 10.04M45.523 104.484l9.836 2.207" stroke-width="1.2" stroke="#00f" stroke-miterlimit="10" fill="none"/><path d="M55.36 106.69l9.835 2.205" stroke-width="1.2" stroke="#000" stroke-miterlimit="10" fill="none"/><path d="M46.453 109.555l7.867 1.765" stroke-width="1.2" stroke="#00f" stroke-miterlimit="10" fill="none"/><path d="M54.32 111.32l7.87 1.762" stroke-width="1.2" stroke="#000" stroke-miterlimit="10" fill="none"/><path d="M67.086 128.97l-18.508 7.995M67.086 128.97l9.164 4.198" stroke-width="1.2" stroke="#00f" stroke-miterlimit="10" fill="none"/><path d="M76.25 133.168l9.164 4.203" stroke-width="1.2" stroke="#000" stroke-miterlimit="10" fill="none"/><path d="M64.086 123.47h7v11h-7zm0 0" fill="#fff"/><use xlink:href="#c" x="64.086" y="132.132" fill="#00f"/><path d="M48.578 136.965l-6.664-7.563" stroke-width="1.2" stroke="#00f" stroke-miterlimit="10" fill="none"/><path d="M41.914 129.402l-6.664-7.566" stroke-width="1.2" stroke="#000" stroke-miterlimit="10" fill="none"/><path d="M50.805 132.316l-5.332-6.05" stroke-width="1.2" stroke="#00f" stroke-miterlimit="10" fill="none"/><path d="M45.473 126.266l-5.328-6.05" stroke-width="1.2" stroke="#000" stroke-miterlimit="10" fill="none"/><path d="M45.578 131.465h7v11h-7zm0 0" fill="#fff"/><use xlink:href="#c" x="45.578" y="140.128" fill="#00f"/><path d="M35.25 121.836l5.137-8.676" stroke-width="1.2" stroke="#000" stroke-miterlimit="10" fill="none"/><path d="M40.387 113.16l5.136-8.676" stroke-width="1.2" stroke="#00f" stroke-miterlimit="10" fill="none"/><path d="M42.523 98.984h7v11h-7zm0 0" fill="#fff"/><use xlink:href="#c" x="42.523" y="107.647" fill="#00f"/><path d="M110.504 168.7l-9.836-2.204" stroke-width="1.2" stroke="#000" stroke-miterlimit="10" fill="none"/><path d="M100.668 166.496l-9.84-2.203" stroke-width="1.2" stroke="#00f" stroke-miterlimit="10" fill="none"/><path d="M107.5 172.89l-7.87-1.765" stroke-width="1.2" stroke="#000" stroke-miterlimit="10" fill="none"/><path d="M99.63 171.125l-7.868-1.762" stroke-width="1.2" stroke="#00f" stroke-miterlimit="10" fill="none"/><path d="M116.527 187.945l-6.023-19.246" stroke-width="1.2" stroke="#000" stroke-miterlimit="10" fill="none"/><path d="M90.828 164.293l-6.824 7.418" stroke-width="1.2" stroke="#00f" stroke-miterlimit="10" fill="none"/><path d="M84.004 171.71l-6.828 7.42" stroke-width="1.2" stroke="#000" stroke-miterlimit="10" fill="none"/><path d="M87.828 158.793h7v11h-7zm0 0" fill="#fff"/><use xlink:href="#c" x="87.828" y="167.456" fill="#00f"/><path d="M77.176 179.13l6.02 19.24M82.305 179.637l4.816 15.394M77.176 179.13L57.5 174.722M83.195 198.37l19.676 4.407M102.87 202.777l13.657-14.832M100.746 198.082l10.922-11.867M211.89 125.934l19.766-3.977M214.8 130.188l15.813-3.18" stroke-width="1.2" stroke="#000" stroke-miterlimit="10" fill="none"/></g></svg>
